X: 86
M:6/8
L:1/8
K:C
|:c2 c c2 B/2c/2|d2 d d2 d| e2 e a2g| e3 g3| c2 c c2 B/2c/2| d2 d d>e f|e>dc BcG| A3 e3:|

